symbols/web/network_check/materialsymbolsoutlined/network_check_wght100grad200fill1_24px.svg

<svg xmlns="http://www.w3.org/2000/svg" height="24" width="24"><path d="m.55 10.95-1.4-1.4q2.45-2.4 5.7-3.863Q8.1 4.225 12 4.225q.425 0 1.288.037.862.038 1.212.138l-.875 1.925q-.35-.025-.813-.063-.462-.037-.812-.037-3.4 0-6.338 1.275Q2.725 8.775.55 10.95Zm5.7 5.675-1.4-1.35Q5.9 14.2 7.312 13.412q1.413-.787 3.563-1.212l-1.3 2.525q-1.15.275-1.95.8t-1.375 1.1Zm5.2 3.275q-.6-.225-.925-.825-.325-.6-.025-1.225l5.95-12.625q.075-.15.2-.213.125-.062.3.013.15.075.25.2t.05.3L13.5 18.95q-.2.65-.8.925-.6.275-1.25.025Zm6.3-3.275q-.25-.25-.562-.525-.313-.275-.663-.475l.475-2q.575.275 1.15.75t1 .9Zm5.7-5.65q-.85-.875-2.2-1.838-1.35-.962-2.6-1.562l.5-1.9q1.75.7 3.175 1.737Q23.75 8.45 24.85 9.575Z"/></svg>

<svg xmlns="http://www.w3.org/2000/svg" height="24" width="24"><path d="M11.45 19.9Q10.85 19.675 10.538 19.1Q10.225 18.525 10.5 17.85Q10.675 17.45 11.463 15.75Q12.25 14.05 13.225 12Q14.2 9.95 15.125 8.012Q16.05 6.075 16.45 5.225Q16.5 5.075 16.638 5.012Q16.775 4.95 16.95 5.025Q17.1 5.1 17.2 5.225Q17.3 5.35 17.25 5.525Q17.05 6.45 16.475 8.537Q15.9 10.625 15.288 12.825Q14.675 15.025 14.15 16.812Q13.625 18.6 13.5 18.95Q13.25 19.6 12.675 19.863Q12.1 20.125 11.45 19.9ZM23.45 10.975Q22.6 10.1 21.25 9.137Q19.9 8.175 18.65 7.575L19.15 5.675Q20.9 6.375 22.325 7.412Q23.75 8.45 24.85 9.575ZM0.55 10.95 -0.85 9.55Q1.6 7.15 4.85 5.687Q8.1 4.225 12 4.225Q12.425 4.225 13.288 4.262Q14.15 4.3 14.5 4.4L13.625 6.325Q13.275 6.3 12.812 6.262Q12.35 6.225 12 6.225Q8.6 6.225 5.662 7.5Q2.725 8.775 0.55 10.95ZM17.75 16.625Q17.5 16.375 17.188 16.1Q16.875 15.825 16.525 15.625L17 13.625Q17.575 13.9 18.15 14.375Q18.725 14.85 19.15 15.275ZM6.25 16.625 4.85 15.275Q5.9 14.2 7.312 13.412Q8.725 12.625 10.875 12.2L9.575 14.725Q8.425 15 7.625 15.525Q6.825 16.05 6.25 16.625Z"/></svg>
